X: 229
T: Liusanr tuiche
%%abc-version 2.0
%%abcx-abcm2ps-target-version 5.9.1 (29 Sep 2008)
%%abc-creator hum2abc beta
%%abcx-conversion-date 2013/10/02 07:52:29
%%abc-edited-by Helmut Schaffrath
%%humdrum-veritas 3541410731
%%humdrum-veritas-data 674469823
%%continueall 1
%%barnumbers 0
L: 1/16
M: 2/4
K: Bb
d2 F GB4 [I:setbarnb 1]| 
d2 F GB4 | 
B c d f d c B G | 
c2> d2 F G B2 | 
z2 d2 d c d c | 
A c A G2< F2 G | 
B G B d B2 G D | 
[M:3/4]F2 F G2< B2 G B B B G | 
[M:2/4]A2 d2G4 | 
A c A G A c A A | 
G A G FD4 | 
B2 B d d c B2 | 
G2 G AG4 | 
B c d f d c B2 | 
G2 G AD4 | 
d2 c B2< B2 A | 
G2 G AD4 | 
d2 d cB4 | 
G2 G BD4 | 
F2 F G F2 G2 | 
f2 f d c f d c | 
B2 B2G4 | 
G B D FG4 | 
B2 B2 G3 B | 
G B D FG4 | 
B2 z2 G2 z2 | 
G B G F G B G F | 
B2 F G B2 B2 | 
B8 |]  



